src/components/assets/become-a-juror-background.svg

<svg fill="none" height="562" viewBox="0 0 1440 562" width="1440" xmlns="http://www.w3.org/2000/svg" xmlns:xlink="http://www.w3.org/1999/xlink"><filter id="a" color-interpolation-filters="sRGB" filterUnits="userSpaceOnUse" height="419" width="500" x="44" y="399"><feFlood flood-opacity="0" result="BackgroundImageFix"/><feBlend in="SourceGraphic" in2="BackgroundImageFix" mode="normal" result="shape"/><feGaussianBlur result="effect1_foregroundBlur" stdDeviation="72"/></filter><filter id="b" color-interpolation-filters="sRGB" filterUnits="userSpaceOnUse" height="419" width="554" x="964" y="-281"><feFlood flood-opacity="0" result="BackgroundImageFix"/><feBlend in="SourceGraphic" in2="BackgroundImageFix" mode="normal" result="shape"/><feGaussianBlur result="effect1_foregroundBlur" stdDeviation="72"/></filter><linearGradient id="c"><stop offset="0" stop-color="#ffc58f"/><stop offset="1" stop-color="#ff7c7c"/></linearGradient><linearGradient id="d" gradientUnits="userSpaceOnUse" x1="188" x2="334.544" xlink:href="#c" y1="655.131" y2="493.67"/><linearGradient id="e" gradientUnits="userSpaceOnUse" x1="1108" x2="1247.84" xlink:href="#c" y1="-24.8689" y2="-218.183"/><linearGradient id="f" gradientUnits="userSpaceOnUse" x1="712.614" x2="712.614" y1="-271" y2="754"><stop offset="0" stop-color="#8e8e8e" stop-opacity=".58"/><stop offset="1" stop-color="#585858" stop-opacity="0"/></linearGradient><mask id="g" height="562" maskUnits="userSpaceOnUse" width="1440" x="0" y="0"><path d="m0 0h1440v562h-1440z" fill="#171717"/></mask><path d="m-2 0h1444v562h-1444z" fill="#1c1c1c"/><g mask="url(#g)"><g filter="url(#a)"><ellipse cx="294" cy="608.5" fill="url(#d)" fill-opacity=".6" rx="106" ry="65.5"/></g><g filter="url(#b)"><ellipse cx="1241" cy="-71.5" fill="url(#e)" fill-opacity=".3" rx="133" ry="65.5"/></g><path d="m1093.67 246.297-380.018-215.0035-.493-.2788-.493.2792-417.476 236.5611-.507.287v.583 244.192.584l.508.287 417.477 235.47.493.278.491-.279 579.488-328.377v185.206l-579.981 328.657-582.159-328.658v-430.53l581.07-329.746 381.6 216.3713zm-381.107-441.752-.493-.281-.494.281-580.576 329.465v-184.114l582.159-329.746 581.071 329.7454v430.5296l-581.072 327.57-381.595-214.196v-185.207l381.105 215.007.493.278.492-.279 415.297-235.471.51-.287v-.583-245.2818-.582l-.51-.2875z" opacity=".6" stroke="url(#f)" stroke-width="2"/></g></svg>

<svg width="1440" height="562" viewBox="0 0 1440 562" fill="none" xmlns="http://www.w3.org/2000/svg">
<rect x="-2" width="1444" height="562" fill="#1C1C1C"/>
<mask id="mask0" mask-type="alpha" maskUnits="userSpaceOnUse" x="0" y="0" width="1440" height="562">
<path d="M0 0H1440V562H0V0Z" fill="#171717"/>
</mask>
<g mask="url(#mask0)">
<g filter="url(#filter0_f)">
<ellipse cx="294" cy="608.5" rx="106" ry="65.5" fill="url(#paint0_linear)" fill-opacity="0.6"/>
</g>
<g filter="url(#filter1_f)">
<ellipse cx="1241" cy="-71.5" rx="133" ry="65.5" fill="url(#paint1_linear)" fill-opacity="0.3"/>
</g>
<path opacity="0.6" d="M1093.67 246.297L713.652 31.2935L713.159 31.0147L712.666 31.2939L295.19 267.855L294.683 268.142V268.725V512.917V513.501L295.191 513.788L712.668 749.258L713.161 749.536L713.652 749.257L1293.14 420.88V606.086L713.159 934.743L131 606.085V175.555L712.07 -154.191L1093.67 62.1803V246.297ZM712.563 -195.455L712.07 -195.736L711.576 -195.455L131 134.01V-50.104L713.159 -379.85L1294.23 -50.1046V380.425L713.158 707.995L331.563 493.799V308.592L712.668 523.599L713.161 523.877L713.653 523.598L1128.95 288.127L1129.46 287.84V287.257V41.9752V41.3932L1128.95 41.1057L712.563 -195.455Z" stroke="url(#paint2_linear)" stroke-width="2"/>
</g>
<defs>
<filter id="filter0_f" x="44" y="399" width="500" height="419" filterUnits="userSpaceOnUse" color-interpolation-filters="sRGB">
<feFlood flood-opacity="0" result="BackgroundImageFix"/>
<feBlend mode="normal" in="SourceGraphic" in2="BackgroundImageFix" result="shape"/>
<feGaussianBlur stdDeviation="72" result="effect1_foregroundBlur"/>
</filter>
<filter id="filter1_f" x="964" y="-281" width="554" height="419" filterUnits="userSpaceOnUse" color-interpolation-filters="sRGB">
<feFlood flood-opacity="0" result="BackgroundImageFix"/>
<feBlend mode="normal" in="SourceGraphic" in2="BackgroundImageFix" result="shape"/>
<feGaussianBlur stdDeviation="72" result="effect1_foregroundBlur"/>
</filter>
<linearGradient id="paint0_linear" x1="188" y1="655.131" x2="334.544" y2="493.67" gradientUnits="userSpaceOnUse">
<stop stop-color="#FFC58F"/>
<stop offset="1" stop-color="#FF7C7C"/>
</linearGradient>
<linearGradient id="paint1_linear" x1="1108" y1="-24.8689" x2="1247.84" y2="-218.183" gradientUnits="userSpaceOnUse">
<stop stop-color="#FFC58F"/>
<stop offset="1" stop-color="#FF7C7C"/>
</linearGradient>
<linearGradient id="paint2_linear" x1="712.614" y1="-271" x2="712.614" y2="754" gradientUnits="userSpaceOnUse">
<stop stop-color="#8E8E8E" stop-opacity="0.58"/>
<stop offset="1" stop-color="#585858" stop-opacity="0"/>
</linearGradient>
</defs>
</svg>
